X:8
T:Trip to Bengall
F:http://www.vwml.org/record/Moore1/4493/p5
Z:Transcribed by Paul Barber-Riley  March 2016
S:John Moore's Book 1
L:1/8
M:2/4
K:G
gdBG | cA B2 | gdBG | AF G2 |
gdBG | FA c2 | Bed^c | d4:|
dcBd | ec c2 | cBAc | dB ~B2|
BGg2 | dBg2 | ecBA | G4:|

